icons/hand.svg

<svg width="24" height="24" viewBox="0 0 24 24" fill="none" xmlns="http://www.w3.org/2000/svg">
<path d="M16.983 6.81493C16.983 6.32393 17.195 5.85293 17.572 5.50493C17.961 5.15313 18.4676 4.95976 18.992 4.96293C19.5164 4.95996 20.023 5.1533 20.412 5.50493C20.788 5.85293 21 6.32393 21 6.81493V14.5919C20.9992 15.5695 20.7909 16.5358 20.389 17.4269C19.9767 18.3374 19.3841 19.1548 18.647 19.8299C17.8882 20.5259 17.0038 21.0709 16.041 21.4359C15.0592 21.8095 14.0175 22.0006 12.967 21.9999C8.53001 21.9999 6.54001 19.7779 3.27001 13.4149C3.13874 13.2071 3.05255 12.9741 3.01701 12.7309C2.98236 12.4894 2.99975 12.2432 3.06801 12.0089C3.13601 11.7739 3.25401 11.5539 3.41501 11.3609C3.57501 11.1679 3.77501 11.0059 4.00501 10.8839C4.47405 10.6392 5.01622 10.5737 5.53001 10.6999C5.78401 10.7639 6.02301 10.8719 6.23201 11.0199C6.44201 11.1689 6.61701 11.3539 6.74801 11.5639L8.95001 15.0799" stroke="white" stroke-width="2" stroke-linecap="round" stroke-linejoin="round"/>
<path d="M8.95001 15.08V5.333C8.95001 4.843 9.16201 4.371 9.53801 4.023C9.92697 3.6712 10.4336 3.47783 10.958 3.481C11.491 3.481 12.002 3.677 12.378 4.024C12.755 4.371 12.967 4.842 12.967 5.334" stroke="white" stroke-width="2" stroke-linecap="round" stroke-linejoin="round"/>
<path d="M16.983 11.63V3.84604C16.9804 3.59986 16.9268 3.35688 16.8256 3.13245C16.7244 2.90801 16.5778 2.70698 16.395 2.54204C16.0061 2.19024 15.4995 1.99687 14.975 2.00004C14.4506 1.99707 13.9441 2.19041 13.555 2.54204C13.3715 2.70767 13.2245 2.90967 13.1232 3.13519C13.022 3.36072 12.9688 3.60484 12.967 3.85204V11.63" stroke="white" stroke-width="2" stroke-linecap="round" stroke-linejoin="round"/>
</svg>

<svg
  width="24"
  height="24"
  viewBox="0 0 24 24"
  xmlns="http://www.w3.org/2000/svg"
  fill="none"
  stroke="currentColor"
  stroke-width="2"
  stroke-linecap="round"
  stroke-linejoin="round"
>
  <path d="M16.983 6.815c0-.491.212-.962.589-1.31a2.098 2.098 0 0 1 1.42-.542 2.1 2.1 0 0 1 1.42.542c.376.348.588.819.588 1.31v7.777a6.91 6.91 0 0 1-.611 2.835 7.395 7.395 0 0 1-1.742 2.403 8.106 8.106 0 0 1-2.606 1.606 8.627 8.627 0 0 1-3.074.564C8.53 22 6.54 19.778 3.27 13.415a1.712 1.712 0 0 1-.202-1.406c.068-.235.186-.455.347-.648.16-.193.36-.355.59-.477A2.175 2.175 0 0 1 5.53 10.7c.254.064.493.172.702.32.21.149.385.334.516.544L8.95 15.08" />
  <path d="M8.95 15.08V5.333c0-.49.212-.962.588-1.31a2.098 2.098 0 0 1 1.42-.542c.533 0 1.044.196 1.42.543.377.347.589.818.589 1.31" />
  <path d="M16.983 11.63V3.846a1.782 1.782 0 0 0-.588-1.304A2.098 2.098 0 0 0 14.975 2a2.1 2.1 0 0 0-1.42.542 1.783 1.783 0 0 0-.588 1.31v7.778" />
</svg>
